build/assets/images/svg/icons/menu/b-favorites.svg

<svg width="20" height="20" viewBox="0 0 20 20" fill="none" xmlns="http://www.w3.org/2000/svg">
<path fill-rule="evenodd" clip-rule="evenodd" d="M8.71586 2.27592C9.24943 2.54614 9.6838 2.86243 10.0007 3.12835C10.3175 2.86243 10.7519 2.54615 11.2854 2.27592C12.4946 1.66355 14.2348 1.2848 16.1917 2.27591C17.4418 2.90901 18.2875 3.86698 18.748 5.03006C19.2023 6.17751 19.264 7.47654 19.0453 8.79451C18.6727 11.04 17.138 13.0437 15.5617 14.5875C13.9657 16.1507 12.2158 17.3494 11.2289 17.9745C10.4735 18.4529 9.52784 18.4529 8.77244 17.9745C7.78552 17.3494 6.03558 16.1507 4.4396 14.5876C2.8633 13.0437 1.3285 11.04 0.955916 8.79451C0.737235 7.47654 0.798961 6.17751 1.25326 5.03006C1.71376 3.86698 2.55939 2.90901 3.80948 2.27591C5.76648 1.2848 7.50672 1.66355 8.71586 2.27592ZM9.36578 4.82118C9.52409 5.0074 9.75621 5.11475 10.0007 5.11475C10.2447 5.11474 10.4765 5.00776 10.6348 4.82214C10.6349 4.82193 10.6351 4.82171 10.6353 4.8215C10.6355 4.82125 10.6357 4.821 10.636 4.82075L10.6486 4.80655C10.6616 4.79216 10.6833 4.76846 10.7135 4.73721C10.7741 4.67458 10.8675 4.58249 10.9906 4.47478C11.2387 4.25775 11.5968 3.98646 12.0385 3.76277C12.906 3.32341 14.073 3.07112 15.4387 3.76277C16.3304 4.21435 16.8898 4.86423 17.1983 5.6436C17.5131 6.4386 17.5845 7.41661 17.4011 8.5217C17.1166 10.2365 15.8938 11.9294 14.3955 13.3968C12.9169 14.845 11.2752 15.9723 10.3371 16.5665C10.1263 16.7 9.8751 16.7 9.66421 16.5665C8.7261 15.9723 7.08444 14.845 5.60579 13.3968C4.10747 11.9294 2.88463 10.2365 2.6001 8.5217C2.41674 7.41661 2.48813 6.4386 2.80289 5.6436C3.11146 4.86423 3.67084 4.21435 4.5625 3.76277C5.92819 3.07112 7.09531 3.32341 7.96284 3.76277C8.40454 3.98647 8.76261 4.25776 9.01072 4.4748C9.13384 4.5825 9.22732 4.67459 9.28784 4.73722C9.31803 4.76847 9.33982 4.79218 9.35278 4.80657L9.36578 4.82118Z" fill="#203686"/>
</svg>

<svg width="20" height="20" fill="none" xmlns="http://www.w3.org/2000/svg"><path fill-rule="evenodd" clip-rule="evenodd" d="M8.716 2.276c.533.27.968.586 1.285.852a6.786 6.786 0 011.284-.852c1.21-.612 2.95-.991 4.907 0 1.25.633 2.096 1.591 2.556 2.754.454 1.148.516 2.447.297 3.765-.372 2.245-1.907 4.249-3.483 5.793-1.596 1.563-3.346 2.761-4.333 3.386a2.282 2.282 0 01-2.457 0c-.986-.625-2.736-1.823-4.332-3.386C2.863 13.044 1.328 11.04.956 8.795.737 7.477.799 6.178 1.253 5.03c.46-1.163 1.307-2.12 2.557-2.754 1.957-.991 3.698-.612 4.907 0zm.65 2.545a.833.833 0 001.27 0l.013-.014a4.634 4.634 0 01.342-.332 5.15 5.15 0 011.048-.712c.867-.44 2.034-.692 3.4 0 .891.451 1.45 1.101 1.76 1.88.314.796.385 1.774.202 2.879-.284 1.714-1.507 3.407-3.005 4.875-1.48 1.448-3.12 2.575-4.059 3.17a.615.615 0 01-.673 0c-.938-.595-2.58-1.722-4.058-3.17-1.499-1.468-2.721-3.16-3.006-4.875-.183-1.105-.112-2.083.203-2.878.308-.78.868-1.43 1.76-1.881 1.365-.692 2.532-.44 3.4 0a5.15 5.15 0 011.39 1.044l.013.014z" fill="#203686"/></svg>
